X:101
T:Quadrille Logic of Buchan
S:John Moore's Book 2
Z:Transcribed by Steve Mansfield 05/2021
%%VWML: Moore2-4494-p78-0
F:http://www.vwml.org/record/Moore2/4494/p78
M:6/8
L:1/8
K:D
(A/>G/) | (F>G)A A(g>f) | (dB)B B2 (A/G/) | (F>G)A Ad>e | (fd)d d2 (A/G/) | 
(F>G)A A(g>f) | (dB)B B2 (A/G/) | (F>G)A Ad>e | (fd)d d2 ||
(d/e/) | (f>e)f afe | dBd d2 (d/e/) | fgf ede | fdB B2 (d/e/) | 
fgf afe | dBc d2 (d/e/) | fgf ede | fdB d2 |]

